X:237
T: ES HAETT EIN SCHWAB EIN TOECHTERLEIN
N: E0119
O: Europa, Mitteleuropa, Deutschland
R: erzaehlendes Volks - Lied, Schalk -, Schelmen - Lied, Liebe
M: 4/4
L: 1/8
K: C
G2 | _A2A2_B2B2 | c2c2G2z
G | c3cc2G2 | c4_B2
G2 | _A2A2G2G2 | F2F2C2z
C | _E3FG2_A2 | _B2G2B2_AG | F4_E2z2 |
G3_A_B2G2 | F2_E2C2D2 | C4z2

@@@ Tune index: 3887
